X:665
T:Mr. Grant of Glenquaich
R:Strathspey
B:The Athole Collection
M:C|
L:1/8
K:D
F|D2 D/E/F A<dA<F|E>DE>F B>AB>d|D2 D>F A<d AG/F/|
E<D E/F/G/E/ F<DD:|
f|d>Ad>f a>ba>f|g>ef>d e>dB>e|d>Ad<f a>ba>f|g>e f/g/a/g/ f<d d>f|
d>A d<f a>ba>f|gb/g/ fa/f/ e>d B<e|df/d/ Bd/B/ Ad/A/ FA/F/|
E>D E/F/G/E/ F<DD||

